X: 10459
T: Donegal, The
R: reel
M: 4/4
K: Dmajor
((3A,B,C)|D2DE FDFA|dFAF BFAF|E2EF GFGA|Bd AF EGFE|
D2DE FDFA|dABF ABde|((3fgf) ((3efe) dBAG|1 FGEF D2:|2 FGEF D3A||
|:defg afdf|afdf a2gf|edef gfed|cdef g2fe|
defg afdf|afdf abag|((3fgf) ((3efe) dBAG|1 FGEF D3A:|2 FGEF D2||

